public/assets/shape-icon-2.svg

<svg width="44" height="41" viewBox="0 0 44 41" fill="none" xmlns="http://www.w3.org/2000/svg">
<path d="M25.5118 40.628H6.91504V33.9414C6.91504 32.2698 7.33291 30.7374 8.09907 29.4141C9.70104 26.5583 12.696 24.6777 16.2482 24.6777C21.4024 24.6777 25.5118 28.8568 25.5118 33.9414V40.628Z" fill="#006D68"/>
<path d="M37.1437 40.628H18.5469V33.9414C18.5469 28.7872 22.726 24.6777 27.8105 24.6777C29.7607 24.6777 31.502 25.235 33.0343 26.2797C35.5417 27.9514 37.1437 30.8071 37.1437 34.0111V40.628Z" fill="#A5C352"/>
<path d="M15.622 23.5634C18.3532 23.5634 20.5672 21.3493 20.5672 18.6181C20.5672 15.8869 18.3532 13.6729 15.622 13.6729C12.8908 13.6729 10.6768 15.8869 10.6768 18.6181C10.6768 21.3493 12.8908 23.5634 15.622 23.5634Z" fill="#A5C352"/>
<path d="M10.8857 18.1305C11.025 17.643 11.5126 17.2947 12.0698 17.1554C13.8111 16.7375 15.622 17.1554 17.3633 16.7375C18.1295 16.5285 18.8956 16.1803 19.5225 15.6231C20.0797 15.0659 20.4976 14.2997 20.5672 13.4639" stroke="#003834" stroke-width="0.5292" stroke-miterlimit="10" stroke-linecap="round"/>
<path d="M28.3681 23.5634C31.0993 23.5634 33.3133 21.3493 33.3133 18.6181C33.3133 15.8869 31.0993 13.6729 28.3681 13.6729C25.6369 13.6729 23.4229 15.8869 23.4229 18.6181C23.4229 21.3493 25.6369 23.5634 28.3681 23.5634Z" fill="#006D68"/>
<path d="M33.3822 18.6876C33.9394 17.7822 34.2876 16.7374 34.2876 15.5533C34.2876 14.3692 33.9394 13.2548 33.3125 12.2797C32.8946 11.5832 32.7553 10.7473 32.8946 9.98117C32.9643 9.70257 32.9642 9.35431 32.9642 9.00605C32.9642 7.96127 32.616 7.0558 32.0588 6.28963C31.6409 5.73241 31.4319 4.96624 31.5016 4.26973C31.5712 3.99112 31.5712 3.64286 31.5016 3.29461C31.2926 1.90157 30.1086 0.78714 28.7156 0.647837C26.835 0.438881 25.1633 1.90157 25.1633 3.78217C25.1633 3.92147 25.1633 4.06077 25.1633 4.20007C25.233 4.89659 25.024 5.66276 24.6061 6.21998C24.0489 6.98615 23.7007 7.96127 23.7007 8.9364C23.7007 9.28466 23.7703 9.63291 23.84 9.98117C24.0489 10.7473 23.84 11.5832 23.4221 12.2797C22.7255 13.3245 22.3773 14.6478 22.5166 15.9712C22.5862 16.8767 22.9345 17.7822 23.4221 18.5483" stroke="#003834" stroke-width="0.5292" stroke-miterlimit="10" stroke-linecap="round"/>
</svg>

<svg xmlns="http://www.w3.org/2000/svg" width="44" height="41" fill="none" viewBox="0 0 44 41"><path fill="#006d68" d="M25.512 40.628H6.915v-6.687c0-1.671.418-3.204 1.184-4.527 1.602-2.856 4.597-4.736 8.15-4.736 5.153 0 9.263 4.179 9.263 9.263z"/><path fill="#a5c352" d="M37.144 40.628H18.547v-6.687c0-5.154 4.179-9.263 9.264-9.263 1.95 0 3.691.557 5.223 1.602a9.26 9.26 0 0 1 4.11 7.731zM15.622 23.563a4.945 4.945 0 1 0 0-9.89 4.945 4.945 0 0 0 0 9.89"/><path stroke="#003834" stroke-linecap="round" stroke-miterlimit="10" stroke-width=".529" d="M10.886 18.13c.139-.487.627-.835 1.184-.975 1.741-.418 3.552 0 5.293-.418.767-.208 1.533-.557 2.16-1.114.557-.557.975-1.323 1.044-2.16"/><path fill="#006d68" d="M28.368 23.563a4.945 4.945 0 1 0 0-9.89 4.945 4.945 0 0 0 0 9.89"/><path stroke="#003834" stroke-linecap="round" stroke-miterlimit="10" stroke-width=".529" d="M33.382 18.688c.557-.906.906-1.95.906-3.135a6 6 0 0 0-.975-3.273 3.35 3.35 0 0 1-.418-2.299c.07-.278.07-.627.07-.975 0-1.045-.349-1.95-.906-2.716a2.98 2.98 0 0 1-.557-2.02c.07-.279.07-.627 0-.975-.21-1.393-1.393-2.508-2.786-2.647-1.881-.21-3.553 1.254-3.553 3.134V4.2a2.98 2.98 0 0 1-.557 2.02c-.557.766-.905 1.741-.905 2.716 0 .349.07.697.139 1.045.209.766 0 1.602-.418 2.299a5.65 5.65 0 0 0-.905 3.691c.07.906.418 1.811.905 2.577"/></svg>
